src/assets/images/components/section/home/SectionHomeFeatures/integration.svg

<svg fill="none" height="174" viewBox="0 0 379 174" width="379" xmlns="http://www.w3.org/2000/svg" xmlns:xlink="http://www.w3.org/1999/xlink"><filter id="a" color-interpolation-filters="sRGB" filterUnits="userSpaceOnUse" height="75.4717" width="75.472" x="68.8138" y="18.8679"><feFlood flood-opacity="0" result="BackgroundImageFix"/><feColorMatrix in="SourceAlpha" result="hardAlpha" type="matrix" values="0 0 0 0 0 0 0 0 0 0 0 0 0 0 0 0 0 0 127 0"/><feOffset dy="1.50943"/><feGaussianBlur stdDeviation="3.01887"/><feComposite in2="hardAlpha" operator="out"/><feColorMatrix type="matrix" values="0 0 0 0 0.506944 0 0 0 0 0.535333 0 0 0 0 0.608333 0 0 0 0.16 0"/><feBlend in2="BackgroundImageFix" mode="normal" result="effect1_dropShadow_40_658"/><feBlend in="SourceGraphic" in2="effect1_dropShadow_40_658" mode="normal" result="shape"/></filter><filter id="b" color-interpolation-filters="sRGB" filterUnits="userSpaceOnUse" height="75.4717" width="75.472" x="151.835" y="50.5661"><feFlood flood-opacity="0" result="BackgroundImageFix"/><feColorMatrix in="SourceAlpha" result="hardAlpha" type="matrix" values="0 0 0 0 0 0 0 0 0 0 0 0 0 0 0 0 0 0 127 0"/><feOffset dy="1.50943"/><feGaussianBlur stdDeviation="3.01887"/><feComposite in2="hardAlpha" operator="out"/><feColorMatrix type="matrix" values="0 0 0 0 0.506944 0 0 0 0 0.535333 0 0 0 0 0.608333 0 0 0 0.16 0"/><feBlend in2="BackgroundImageFix" mode="normal" result="effect1_dropShadow_40_658"/><feBlend in="SourceGraphic" in2="effect1_dropShadow_40_658" mode="normal" result="shape"/></filter><filter id="c" color-interpolation-filters="sRGB" filterUnits="userSpaceOnUse" height="75.4717" width="75.472" x="234.853" y="93.585"><feFlood flood-opacity="0" result="BackgroundImageFix"/><feColorMatrix in="SourceAlpha" result="hardAlpha" type="matrix" values="0 0 0 0 0 0 0 0 0 0 0 0 0 0 0 0 0 0 127 0"/><feOffset dy="1.50943"/><feGaussianBlur stdDeviation="3.01887"/><feComposite in2="hardAlpha" operator="out"/><feColorMatrix type="matrix" values="0 0 0 0 0.506944 0 0 0 0 0.535333 0 0 0 0 0.608333 0 0 0 0.16 0"/><feBlend in2="BackgroundImageFix" mode="normal" result="effect1_dropShadow_40_658"/><feBlend in="SourceGraphic" in2="effect1_dropShadow_40_658" mode="normal" result="shape"/></filter><radialGradient id="d" cx="0" cy="0" gradientTransform="matrix(0 96.9811 -209.142 0 189.57 86.7924)" gradientUnits="userSpaceOnUse" r="1"><stop offset=".583227" stop-color="#f6f7fb"/><stop offset="1" stop-color="#f6f7fb" stop-opacity="0"/></radialGradient><clipPath id="e"><path d="m88.4375 36.9811h36.2264v36.2264h-36.2264z"/></clipPath><clipPath id="f"><path d="m257.496 114.717h30.1887v30.1887h-30.1887z"/></clipPath><mask id="g" height="174" maskUnits="userSpaceOnUse" width="375" x="2" y="0"><path d="m2.40039 36.2264c0-20.0073 16.21911-36.2264 36.22641-36.2264h301.8872c20.007 0 36.226 16.2191 36.226 36.2264v137.3586h-374.33961z" fill="url(#d)"/></mask><g mask="url(#g)"><g filter="url(#a)"><circle cx="106.55" cy="55.0944" fill="#fff" r="31.6981"/><circle cx="106.55" cy="55.0944" r="31.0189" stroke="#81899b" stroke-opacity=".2" stroke-width="1.35849"/></g><g clip-path="url(#e)" fill="#161614"><path d="m106.481 36.9812c-9.964 0-18.0435 8.3039-18.0435 18.5477 0 8.1949 5.1699 15.1473 12.3395 17.5999.901.1717 1.232-.4024 1.232-.8923 0-.4422-.016-1.9034-.024-3.4532-5.0199 1.122-6.0791-2.1884-6.0791-2.1884-.8207-2.1439-2.0033-2.7138-2.0033-2.7138-1.637-1.1512.1234-1.1277.1234-1.1277 1.8119.131 2.7659 1.9115 2.7659 1.9115 1.6093 2.8355 4.2211 2.0157 5.2511 1.5419.161-1.1989.629-2.017 1.145-2.4802-4.0075-.4691-8.2205-2.0595-8.2205-9.1664 0-2.0249.7048-3.6796 1.8591-4.9784-.1874-.4673-.8049-2.3537.1748-4.9085 0 0 1.5151-.4985 4.9636 1.9012 1.439-.411 2.982-.617 4.516-.624 1.533.007 3.078.213 4.52.624 3.444-2.3997 4.957-1.9012 4.957-1.9012.982 2.5548.364 4.4412.177 4.9085 1.156 1.2988 1.856 2.9534 1.856 4.9784 0 7.1238-4.22 8.6925-8.238 9.1516.647.5756 1.224 1.7044 1.224 3.4347 0 2.4817-.021 4.4791-.021 5.09 0 .4936.324 1.072 1.239.8898 7.165-2.4553 12.329-9.4052 12.329-17.5974 0-10.2438-8.079-18.5477-18.043-18.5477z"/><path d="m95.1962 63.4028c-.0397.0921-.1809.1197-.3092.0566-.1309-.0606-.2045-.1862-.1621-.2788.0389-.0948.1802-.1213.3108-.0576.1312.0604.2059.1873.1605.2798m.8875.814c-.086.082-.2543.0439-.3685-.0857-.118-.1293-.1401-.3021-.0528-.3855.0888-.0819.2519-.0436.3702.0859.118.1307.141.3025.051.3855m.609 1.0413c-.1106.079-.2915.005-.4031-.16-.1106-.1648-.1106-.3626.0024-.4419.112-.0793.2901-.008.4033.1557.1103.1677.1103.3655-.0027.4464m1.0297 1.2062c-.0989.112-.3094.082-.4637-.071-.1576-.1495-.2016-.3618-.1024-.4739.1-.1123.3118-.0808.4672.071.1567.1492.2045.363.0991.4739m1.3306.4073c-.0435.1452-.2464.2112-.4507.1495-.2041-.0635-.3377-.2337-.2965-.3805.0425-.1462.2462-.215.4521-.149.2038.0633.3377.2322.2952.38m1.5149.1727c.005.153-.169.2798-.383.2826-.2159.0048-.3904-.119-.3926-.2694 0-.1545.1694-.2802.3846-.2838.215-.0044.391.1186.391.2706m1.488-.0587c.025.1493-.124.3026-.337.3433-.209.0393-.403-.0528-.43-.2007-.026-.153.126-.3062.335-.3459.213-.0381.404.0516.432.2033"/></g><rect fill="#f0f2f6" height="63.3962" rx="31.6981" transform="matrix(0 -1 1 0 -140.99602 124.66398)" width="224.906" x="-8.16602" y="132.83"/><rect height="62.0377" rx="31.0189" stroke="#81899b" stroke-opacity=".2" stroke-width="1.35849" transform="matrix(0 -1 1 0 -139.63777 124.66423)" width="223.547" x="-7.48677" y="132.151"/><rect fill="#81899b" fill-opacity=".05" height="63.3962" rx="31.6981" transform="matrix(0 -1 1 0 -217.97702 201.64498)" width="63.3962" x="-8.16602" y="209.811"/><rect height="62.0377" rx="31.0189" stroke="#81899b" stroke-opacity=".2" stroke-width="1.35849" transform="matrix(0 -1 1 0 -216.61877 201.64523)" width="62.0377" x="-7.48677" y="209.132"/><rect fill="#f0f2f6" height="63.3962" rx="31.6981" transform="matrix(0 1 -1 0 239.3815 -369.1925)" width="149.434" x="304.287" y="-64.9055"/><rect height="62.0377" rx="31.0189" stroke="#81899b" stroke-opacity=".2" stroke-width="1.35849" transform="matrix(0 1 -1 0 239.3817 -367.8343)" width="148.075" x="303.608" y="-64.2263"/><rect height="62.0377" rx="31.0189" stroke="#81899b" stroke-opacity=".2" stroke-width="1.35849" transform="matrix(0 1 -1 0 469.5706 -303.6834)" width="148.075" x="386.627" y="82.9436"/><rect fill="#f0f2f6" height="63.3962" rx="31.6981" transform="matrix(0 1 -1 0 353.343 -89.193)" width="262.642" x="221.268" y="132.075"/><rect height="62.0377" rx="31.0189" stroke="#81899b" stroke-opacity=".2" stroke-width="1.35849" transform="matrix(0 1 -1 0 353.343 -87.833)" width="261.283" x="220.588" y="132.755"/><g filter="url(#b)"><circle cx="189.571" cy="86.7925" fill="#fff" r="31.6981"/><circle cx="189.571" cy="86.7925" r="31.0189" stroke="#81899b" stroke-opacity=".2" stroke-width="1.35849"/></g><path d="m194.1 86.8005c.001 1.3062-.235 2.6017-.695 3.8241-1.223.4604-2.519.6964-3.825.6967h-.016c-1.345-.0017-2.634-.2477-3.824-.6961-.461-1.2225-.697-2.5183-.696-3.8247v-.0159c-.001-1.306.235-2.6013.695-3.8236 1.222-.4613 2.519-.6974 3.825-.6968h.016c1.306-.0006 2.602.2354 3.825.6967.461 1.2221.696 2.5175.695 3.8236v.0158zm13.334-3.0268h-10.573l7.476-7.4764c-.587-.8242-1.242-1.5981-1.957-2.3135v-.0006c-.716-.7146-1.489-1.3686-2.313-1.9551l-7.477 7.4764v-10.573c-.994-.1673-2-.2516-3.009-.2522h-.018c-1.026.0006-2.031.0878-3.01.2522v10.573l-7.476-7.4764c-.824.5864-1.597 1.2408-2.312 1.9564l-.004.0028c-.714.7146-1.368 1.4872-1.954 2.31l7.477 7.4764h-10.573s-.252 1.9858-.252 3.0126v.0125c0 1.0267.087 2.033.252 3.0125h10.573l-7.477 7.4764c1.176 1.6506 2.619 3.0933 4.27 4.2693l7.476-7.4765v10.5735c.994.167 1.999.251 3.006.252h.026c1.007-.001 2.012-.085 3.005-.252v-10.5735l7.477 7.4765c.824-.586 1.597-1.24 2.313-1.9552l.001-.0017c.715-.7154 1.369-1.4889 1.956-2.3124l-7.477-7.4764h10.574c.164-.9778.25-1.9811.251-3.0056v-.0263c-.001-1.0246-.087-2.0279-.251-3.0057z" fill="#ff4a00"/><g stroke="#81899b" stroke-opacity=".2" stroke-width="1.35849"><rect height="62.0377" rx="31.0189" transform="matrix(0 -1 1 0 -10.5804 161.646)" width="129.962" x="75.5328" y="86.1132"/><rect height="62.0377" rx="31.0189" transform="matrix(0 -1 1 0 -155.4862 306.5518)" width="129.962" x="75.5328" y="231.019"/><rect height="62.0377" rx="31.0189" transform="matrix(0 -1 1 0 117.7217 199.3823)" width="129.962" x="158.552" y="40.8303"/></g><g filter="url(#c)"><circle cx="272.589" cy="129.811" fill="#fff" r="31.6981"/><circle cx="272.589" cy="129.811" r="31.0189" stroke="#81899b" stroke-opacity=".2" stroke-width="1.35849"/><g clip-path="url(#f)"><path d="m280.535 121.867h-15.889v15.889h15.889z" fill="#fff"/><path d="m280.535 144.906 7.15-7.15h-7.15z" fill="#ea4335"/><path d="m287.685 121.867h-7.15v15.889h7.15z" fill="#fbbc04"/><path d="m280.535 137.756h-15.889v7.15h15.889z" fill="#34a853"/><path d="m257.496 137.756v4.766c0 1.317 1.067 2.384 2.383 2.384h4.767v-7.15z" fill="#188038"/><path d="m287.685 121.867v-4.767c0-1.316-1.066-2.383-2.383-2.383h-4.767v7.15z" fill="#1967d2"/><g fill="#4285f4"><path d="m280.535 114.717h-20.656c-1.316 0-2.383 1.067-2.383 2.383v20.656h7.15v-15.889h15.889z"/><path d="m267.905 134.193c-.594-.401-1.005-.987-1.229-1.762l1.378-.568c.125.477.344.846.656 1.108.309.263.687.392 1.128.392.45 0 .838-.137 1.162-.412.323-.274.486-.623.486-1.046 0-.433-.171-.787-.512-1.061-.342-.274-.771-.411-1.283-.411h-.797v-1.364h.715c.441 0 .813-.12 1.114-.358.302-.238.453-.564.453-.979 0-.369-.135-.663-.405-.884-.27-.22-.612-.331-1.027-.331-.405 0-.727.107-.965.323-.238.217-.417.491-.52.797l-1.365-.568c.181-.513.513-.966.999-1.357.487-.391 1.109-.588 1.863-.588.558 0 1.061.108 1.506.324s.794.516 1.046.898c.253.383.378.812.378 1.289 0 .486-.117.897-.352 1.235-.234.338-.522.596-.864.777v.081c.441.182.824.481 1.108.864.288.387.433.85.433 1.39s-.137 1.023-.411 1.446-.653.757-1.134.999c-.482.242-1.025.366-1.626.366-.697.002-1.341-.199-1.935-.6zm8.467-6.84-1.513 1.094-.757-1.148 2.715-1.958h1.041v9.237h-1.486z"/></g></g></g><circle cx="355.606" cy="36.9811" fill="#fff" r="31.6981"/><circle cx="355.606" cy="36.9811" r="31.0189" stroke="#81899b" stroke-opacity=".2" stroke-width="1.35849"/></g></svg>

<svg width="379" height="174" viewBox="0 0 379 174" fill="none" xmlns="http://www.w3.org/2000/svg">
<mask id="mask0_40_658" style="mask-type:alpha" maskUnits="userSpaceOnUse" x="2" y="0" width="375" height="174">
<path d="M2.40039 36.2264C2.40039 16.2191 18.6195 0 38.6268 0H340.514C360.521 0 376.74 16.2191 376.74 36.2264V173.585H2.40039V36.2264Z" fill="url(#paint0_radial_40_658)"/>
</mask>
<g mask="url(#mask0_40_658)">
<g filter="url(#filter0_d_40_658)">
<circle cx="106.55" cy="55.0944" r="31.6981" fill="white"/>
<circle cx="106.55" cy="55.0944" r="31.0189" stroke="#81899B" stroke-opacity="0.2" stroke-width="1.35849"/>
</g>
<g clip-path="url(#clip0_40_658)">
<path d="M106.481 36.9812C96.517 36.9812 88.4375 45.2851 88.4375 55.5289C88.4375 63.7238 93.6074 70.6762 100.777 73.1288C101.678 73.3005 102.009 72.7264 102.009 72.2365C102.009 71.7943 101.993 70.3331 101.985 68.7833C96.9651 69.9053 95.9059 66.5949 95.9059 66.5949C95.0852 64.451 93.9026 63.8811 93.9026 63.8811C92.2656 62.7299 94.026 62.7534 94.026 62.7534C95.8379 62.8844 96.7919 64.6649 96.7919 64.6649C98.4012 67.5004 101.013 66.6806 102.043 66.2068C102.204 65.0079 102.672 64.1898 103.188 63.7266C99.1805 63.2575 94.9675 61.6671 94.9675 54.5602C94.9675 52.5353 95.6723 50.8806 96.8266 49.5818C96.6392 49.1145 96.0217 47.2281 97.0014 44.6733C97.0014 44.6733 98.5165 44.1748 101.965 46.5745C103.404 46.1635 104.947 45.9575 106.481 45.9505C108.014 45.9575 109.559 46.1635 111.001 46.5745C114.445 44.1748 115.958 44.6733 115.958 44.6733C116.94 47.2281 116.322 49.1145 116.135 49.5818C117.291 50.8806 117.991 52.5352 117.991 54.5602C117.991 61.684 113.771 63.2527 109.753 63.7118C110.4 64.2874 110.977 65.4162 110.977 67.1465C110.977 69.6282 110.956 71.6256 110.956 72.2365C110.956 72.7301 111.28 73.3085 112.195 73.1263C119.36 70.671 124.524 63.7211 124.524 55.5289C124.524 45.2851 116.445 36.9812 106.481 36.9812Z" fill="#161614"/>
<path d="M95.1962 63.4028C95.1565 63.4949 95.0153 63.5225 94.887 63.4594C94.7561 63.3988 94.6825 63.2732 94.7249 63.1806C94.7638 63.0858 94.9051 63.0593 95.0357 63.123C95.1669 63.1834 95.2416 63.3103 95.1962 63.4028M96.0837 64.2168C95.9977 64.2988 95.8294 64.2607 95.7152 64.1311C95.5972 64.0018 95.5751 63.829 95.6624 63.7456C95.7512 63.6637 95.9143 63.702 96.0326 63.8315C96.1506 63.9622 96.1736 64.134 96.0836 64.217M96.6926 65.2583C96.582 65.3373 96.4011 65.2633 96.2895 65.0983C96.1789 64.9335 96.1789 64.7357 96.2919 64.6564C96.4039 64.5771 96.582 64.6484 96.6952 64.8121C96.8055 64.9798 96.8055 65.1776 96.6925 65.2585M97.7222 66.4647C97.6233 66.5767 97.4128 66.5467 97.2585 66.3937C97.1009 66.2442 97.0569 66.0319 97.1561 65.9198C97.2561 65.8075 97.4679 65.839 97.6233 65.9908C97.78 66.14 97.8278 66.3538 97.7224 66.4647M99.053 66.872C99.0095 67.0172 98.8066 67.0832 98.6023 67.0215C98.3982 66.958 98.2646 66.7878 98.3058 66.641C98.3483 66.4948 98.552 66.426 98.7579 66.492C98.9617 66.5553 99.0956 66.7242 99.0531 66.872M100.568 67.0447C100.573 67.1977 100.399 67.3245 100.185 67.3273C99.9691 67.3321 99.7946 67.2083 99.7924 67.0579C99.7924 66.9034 99.9618 66.7777 100.177 66.7741C100.392 66.7697 100.568 66.8927 100.568 67.0447M102.056 66.986C102.081 67.1353 101.932 67.2886 101.719 67.3293C101.51 67.3686 101.316 67.2765 101.289 67.1286C101.263 66.9756 101.415 66.8224 101.624 66.7827C101.837 66.7446 102.028 66.8343 102.056 66.986" fill="#161614"/>
</g>
<rect x="-8.16602" y="132.83" width="224.906" height="63.3962" rx="31.6981" transform="rotate(-90 -8.16602 132.83)" fill="#F0F2F6"/>
<rect x="-7.48677" y="132.151" width="223.547" height="62.0377" rx="31.0189" transform="rotate(-90 -7.48677 132.151)" stroke="#81899B" stroke-opacity="0.2" stroke-width="1.35849"/>
<rect x="-8.16602" y="209.811" width="63.3962" height="63.3962" rx="31.6981" transform="rotate(-90 -8.16602 209.811)" fill="#81899B" fill-opacity="0.05"/>
<rect x="-7.48677" y="209.132" width="62.0377" height="62.0377" rx="31.0189" transform="rotate(-90 -7.48677 209.132)" stroke="#81899B" stroke-opacity="0.2" stroke-width="1.35849"/>
<rect x="304.287" y="-64.9055" width="149.434" height="63.3962" rx="31.6981" transform="rotate(90 304.287 -64.9055)" fill="#F0F2F6"/>
<rect x="303.608" y="-64.2263" width="148.075" height="62.0377" rx="31.0189" transform="rotate(90 303.608 -64.2263)" stroke="#81899B" stroke-opacity="0.2" stroke-width="1.35849"/>
<rect x="386.627" y="82.9436" width="148.075" height="62.0377" rx="31.0189" transform="rotate(90 386.627 82.9436)" stroke="#81899B" stroke-opacity="0.2" stroke-width="1.35849"/>
<rect x="221.268" y="132.075" width="262.642" height="63.3962" rx="31.6981" transform="rotate(90 221.268 132.075)" fill="#F0F2F6"/>
<rect x="220.588" y="132.755" width="261.283" height="62.0377" rx="31.0189" transform="rotate(90 220.588 132.755)" stroke="#81899B" stroke-opacity="0.2" stroke-width="1.35849"/>
<g filter="url(#filter1_d_40_658)">
<circle cx="189.571" cy="86.7925" r="31.6981" fill="white"/>
<circle cx="189.571" cy="86.7925" r="31.0189" stroke="#81899B" stroke-opacity="0.2" stroke-width="1.35849"/>
</g>
<path d="M194.1 86.8005C194.101 88.1067 193.865 89.4022 193.405 90.6246C192.182 91.085 190.886 91.321 189.58 91.3213H189.564C188.219 91.3196 186.93 91.0736 185.74 90.6252C185.279 89.4027 185.043 88.1069 185.044 86.8005V86.7846C185.043 85.4786 185.279 84.1833 185.739 82.961C186.961 82.4997 188.258 82.2636 189.564 82.2642H189.58C190.886 82.2636 192.182 82.4996 193.405 82.9609C193.866 84.183 194.101 85.4784 194.1 86.7845V86.8003L194.1 86.8005ZM207.434 83.7737H196.861L204.337 76.2973C203.75 75.4731 203.095 74.6992 202.38 73.9838V73.9832C201.664 73.2686 200.891 72.6146 200.067 72.0281L192.59 79.5045V68.9315C191.596 68.7642 190.59 68.6799 189.581 68.6793H189.563C188.537 68.6799 187.532 68.7671 186.553 68.9315V79.5045L179.077 72.0281C178.253 72.6145 177.48 73.2689 176.765 73.9845L176.761 73.9873C176.047 74.7019 175.393 75.4745 174.807 76.2973L182.284 83.7737H171.711C171.711 83.7737 171.459 85.7595 171.459 86.7863V86.7988C171.459 87.8255 171.546 88.8318 171.711 89.8113H182.284L174.807 97.2877C175.983 98.9383 177.426 100.381 179.077 101.557L186.553 94.0805V104.654C187.547 104.821 188.552 104.905 189.559 104.906H189.585C190.592 104.905 191.597 104.821 192.59 104.654V94.0805L200.067 101.557C200.891 100.971 201.664 100.317 202.38 99.6018L202.381 99.6001C203.096 98.8847 203.75 98.1112 204.337 97.2877L196.86 89.8113H207.434C207.598 88.8335 207.684 87.8302 207.685 86.8057V86.7794C207.684 85.7548 207.598 84.7515 207.434 83.7737V83.7737Z" fill="#FF4A00"/>
<rect x="75.5328" y="86.1132" width="129.962" height="62.0377" rx="31.0189" transform="rotate(-90 75.5328 86.1132)" stroke="#81899B" stroke-opacity="0.2" stroke-width="1.35849"/>
<rect x="75.5328" y="231.019" width="129.962" height="62.0377" rx="31.0189" transform="rotate(-90 75.5328 231.019)" stroke="#81899B" stroke-opacity="0.2" stroke-width="1.35849"/>
<rect x="158.552" y="40.8303" width="129.962" height="62.0377" rx="31.0189" transform="rotate(-90 158.552 40.8303)" stroke="#81899B" stroke-opacity="0.2" stroke-width="1.35849"/>
<g filter="url(#filter2_d_40_658)">
<circle cx="272.589" cy="129.811" r="31.6981" fill="white"/>
<circle cx="272.589" cy="129.811" r="31.0189" stroke="#81899B" stroke-opacity="0.2" stroke-width="1.35849"/>
<g clip-path="url(#clip1_40_658)">
<path d="M280.535 121.867H264.646V137.756H280.535V121.867Z" fill="white"/>
<path d="M280.535 144.906L287.685 137.756H280.535V144.906Z" fill="#EA4335"/>
<path d="M287.685 121.867H280.535V137.756H287.685V121.867Z" fill="#FBBC04"/>
<path d="M280.535 137.756H264.646V144.906H280.535V137.756Z" fill="#34A853"/>
<path d="M257.496 137.756V142.522C257.496 143.839 258.563 144.906 259.879 144.906H264.646V137.756H257.496Z" fill="#188038"/>
<path d="M287.685 121.867V117.1C287.685 115.784 286.619 114.717 285.302 114.717H280.535V121.867H287.685Z" fill="#1967D2"/>
<path d="M280.535 114.717H259.879C258.563 114.717 257.496 115.784 257.496 117.1V137.756H264.646V121.867H280.535V114.717Z" fill="#4285F4"/>
<path d="M267.905 134.193C267.311 133.792 266.9 133.206 266.676 132.431L268.054 131.863C268.179 132.34 268.398 132.709 268.71 132.971C269.019 133.234 269.397 133.363 269.838 133.363C270.288 133.363 270.676 133.226 271 132.951C271.323 132.677 271.486 132.328 271.486 131.905C271.486 131.472 271.315 131.118 270.974 130.844C270.632 130.57 270.203 130.433 269.691 130.433H268.894V129.069H269.609C270.05 129.069 270.422 128.949 270.723 128.711C271.025 128.473 271.176 128.147 271.176 127.732C271.176 127.363 271.041 127.069 270.771 126.848C270.501 126.628 270.159 126.517 269.744 126.517C269.339 126.517 269.017 126.624 268.779 126.84C268.541 127.057 268.362 127.331 268.259 127.637L266.894 127.069C267.075 126.556 267.407 126.103 267.893 125.712C268.38 125.321 269.002 125.124 269.756 125.124C270.314 125.124 270.817 125.232 271.262 125.448C271.707 125.664 272.056 125.964 272.308 126.346C272.561 126.729 272.686 127.158 272.686 127.635C272.686 128.121 272.569 128.532 272.334 128.87C272.1 129.208 271.812 129.466 271.47 129.647V129.728C271.911 129.91 272.294 130.209 272.578 130.592C272.866 130.979 273.011 131.442 273.011 131.982C273.011 132.522 272.874 133.005 272.6 133.428C272.326 133.851 271.947 134.185 271.466 134.427C270.984 134.669 270.441 134.793 269.84 134.793C269.143 134.795 268.499 134.594 267.905 134.193V134.193ZM276.372 127.353L274.859 128.447L274.102 127.299L276.817 125.341H277.858V134.578H276.372V127.353Z" fill="#4285F4"/>
</g>
</g>
<circle cx="355.606" cy="36.9811" r="31.6981" fill="white"/>
<circle cx="355.606" cy="36.9811" r="31.0189" stroke="#81899B" stroke-opacity="0.2" stroke-width="1.35849"/>
</g>
<defs>
<filter id="filter0_d_40_658" x="68.8138" y="18.8679" width="75.472" height="75.4717" filterUnits="userSpaceOnUse" color-interpolation-filters="sRGB">
<feFlood flood-opacity="0" result="BackgroundImageFix"/>
<feColorMatrix in="SourceAlpha" type="matrix" values="0 0 0 0 0 0 0 0 0 0 0 0 0 0 0 0 0 0 127 0" result="hardAlpha"/>
<feOffset dy="1.50943"/>
<feGaussianBlur stdDeviation="3.01887"/>
<feComposite in2="hardAlpha" operator="out"/>
<feColorMatrix type="matrix" values="0 0 0 0 0.506944 0 0 0 0 0.535333 0 0 0 0 0.608333 0 0 0 0.16 0"/>
<feBlend mode="normal" in2="BackgroundImageFix" result="effect1_dropShadow_40_658"/>
<feBlend mode="normal" in="SourceGraphic" in2="effect1_dropShadow_40_658" result="shape"/>
</filter>
<filter id="filter1_d_40_658" x="151.835" y="50.5661" width="75.472" height="75.4717" filterUnits="userSpaceOnUse" color-interpolation-filters="sRGB">
<feFlood flood-opacity="0" result="BackgroundImageFix"/>
<feColorMatrix in="SourceAlpha" type="matrix" values="0 0 0 0 0 0 0 0 0 0 0 0 0 0 0 0 0 0 127 0" result="hardAlpha"/>
<feOffset dy="1.50943"/>
<feGaussianBlur stdDeviation="3.01887"/>
<feComposite in2="hardAlpha" operator="out"/>
<feColorMatrix type="matrix" values="0 0 0 0 0.506944 0 0 0 0 0.535333 0 0 0 0 0.608333 0 0 0 0.16 0"/>
<feBlend mode="normal" in2="BackgroundImageFix" result="effect1_dropShadow_40_658"/>
<feBlend mode="normal" in="SourceGraphic" in2="effect1_dropShadow_40_658" result="shape"/>
</filter>
<filter id="filter2_d_40_658" x="234.853" y="93.585" width="75.472" height="75.4717" filterUnits="userSpaceOnUse" color-interpolation-filters="sRGB">
<feFlood flood-opacity="0" result="BackgroundImageFix"/>
<feColorMatrix in="SourceAlpha" type="matrix" values="0 0 0 0 0 0 0 0 0 0 0 0 0 0 0 0 0 0 127 0" result="hardAlpha"/>
<feOffset dy="1.50943"/>
<feGaussianBlur stdDeviation="3.01887"/>
<feComposite in2="hardAlpha" operator="out"/>
<feColorMatrix type="matrix" values="0 0 0 0 0.506944 0 0 0 0 0.535333 0 0 0 0 0.608333 0 0 0 0.16 0"/>
<feBlend mode="normal" in2="BackgroundImageFix" result="effect1_dropShadow_40_658"/>
<feBlend mode="normal" in="SourceGraphic" in2="effect1_dropShadow_40_658" result="shape"/>
</filter>
<radialGradient id="paint0_radial_40_658" cx="0" cy="0" r="1" gradientUnits="userSpaceOnUse" gradientTransform="translate(189.57 86.7924) rotate(90) scale(96.9811 209.142)">
<stop offset="0.583227" stop-color="#F6F7FB"/>
<stop offset="1" stop-color="#F6F7FB" stop-opacity="0"/>
</radialGradient>
<clipPath id="clip0_40_658">
<rect width="36.2264" height="36.2264" fill="white" transform="translate(88.4375 36.9811)"/>
</clipPath>
<clipPath id="clip1_40_658">
<rect width="30.1887" height="30.1887" fill="white" transform="translate(257.496 114.717)"/>
</clipPath>
</defs>
</svg>
